branches/nugui/src/gui/icons/file_close.svg

<?xml version="1.0" encoding="UTF-8" standalone="no"?>
<!-- Created with Inkscape (http://www.inkscape.org/) -->

<svg
   xmlns:dc="http://purl.org/dc/elements/1.1/"
   xmlns:cc="http://creativecommons.org/ns#"
   xmlns:rdf="http://www.w3.org/1999/02/22-rdf-syntax-ns#"
   xmlns:svg="http://www.w3.org/2000/svg"
   xmlns="http://www.w3.org/2000/svg"
   xmlns:xlink="http://www.w3.org/1999/xlink"
   xmlns:inkscape="http://www.inkscape.org/namespaces/inkscape"
   version="1.0"
   width="100"
   height="100"
   id="svg2">
  <metadata
     id="metadata2566">
    <rdf:RDF>
      <cc:Work
         rdf:about="">
        <dc:format>image/svg+xml</dc:format>
        <dc:type
           rdf:resource="http://purl.org/dc/dcmitype/StillImage" />
      </cc:Work>
    </rdf:RDF>
  </metadata>
  <defs
     id="defs4">
    <linearGradient
       x1="15.350921"
       y1="46.012268"
       x2="80.354599"
       y2="46.012268"
       id="linearGradient2191"
       xlink:href="#linearGradient5072"
       gradientUnits="userSpaceOnUse"
       gradientTransform="matrix(0.5862815,0,0,0.5862815,48.276596,51.265049)" />
    <linearGradient
       x1="32.94278"
       y1="25.952555"
       x2="66.236534"
       y2="25.952555"
       id="linearGradient2188"
       xlink:href="#linearGradient5064"
       gradientUnits="userSpaceOnUse"
       gradientTransform="matrix(0.5862815,0,0,0.5862815,48.276596,51.265049)" />
    <linearGradient
       id="linearGradient5064">
      <stop
         id="stop5066"
         style="stop-color:#dadada;stop-opacity:1"
         offset="0" />
      <stop
         id="stop5068"
         style="stop-color:#898989;stop-opacity:1"
         offset="1" />
    </linearGradient>
    <linearGradient
       id="linearGradient5072">
      <stop
         id="stop5074"
         style="stop-color:#862bff;stop-opacity:1"
         offset="0" />
      <stop
         id="stop5076"
         style="stop-color:#9b50ff;stop-opacity:1"
         offset="1" />
    </linearGradient>
  </defs>
  <g
     transform="matrix(1.4729505,0,0,1.3857781,-14.783037,-10.951583)"
     id="g2222"
     style="fill:#282828;fill-opacity:1">
    <path
       d="M 18.48245,76.173836 C 28.750053,59.008499 37.561029,40.501038 52.045447,26.345519 c 4.861916,-4.770861 14.454828,-9.743338 16.431346,-12.039133 0.91895,-1.067393 1.476704,4.049375 -1.748383,3.69167 -4.347692,3.777153 -7.49977,8.733063 -12.000737,12.355169 C 43.582066,41.395155 36.018982,55.454188 30.113,69.844498 c -1.327487,3.358206 -5.114156,3.969552 -8.12244,5.003819 -1.188395,0.388351 -2.37174,0.801242 -3.50811,1.325519 z"
       inkscape:connector-curvature="0"
       id="path2224"
       style="fill:#282828;fill-opacity:1;fill-rule:evenodd;stroke:none" />
    <path
       d="m 26.043592,14.383832 c 12.392893,2.506 22.323014,11.212548 29.894357,20.881192 6.826524,7.63938 12.391804,17.042483 15.890906,26.472487 C 71.589676,72.866367 56.700653,71.981932 56.969096,60.998788 52.254723,44.377654 38.65891,32.065429 23.974756,24.019933 c -5.817685,-0.437357 -8.955637,-4.962042 -1.79774,-7.150781 1.298398,-0.813154 2.623305,-1.587287 3.866576,-2.48532 z"
       inkscape:connector-curvature="0"
       id="path2226"
       style="fill:#282828;fill-opacity:1;fill-rule:evenodd;stroke:none" />
  </g>
  <g
     transform="matrix(1.4729505,0,0,1.3857781,-18.154375,-13.676637)"
     id="g2218">
    <path
       d="M 18.48245,76.173836 C 28.750053,59.008499 37.561029,40.501038 52.045447,26.345519 c 4.861916,-4.770861 14.454828,-9.743338 16.431346,-12.039133 0.91895,-1.067393 1.476704,4.049375 -1.748383,3.69167 -4.347692,3.777153 -7.49977,8.733063 -12.000737,12.355169 C 43.582066,41.395155 36.018982,55.454188 30.113,69.844498 c -1.327487,3.358206 -5.114156,3.969552 -8.12244,5.003819 -1.188395,0.388351 -2.37174,0.801242 -3.50811,1.325519 z"
       inkscape:connector-curvature="0"
       id="path3233"
       style="fill:#010101;fill-opacity:1;fill-rule:evenodd;stroke:none" />
    <path
       d="m 26.043592,14.383832 c 12.392893,2.506 22.323014,11.212548 29.894357,20.881192 6.826524,7.63938 12.391804,17.042483 15.890906,26.472487 C 71.589676,72.866367 56.700653,71.981932 56.969096,60.998788 52.254723,44.377654 38.65891,32.065429 23.974756,24.019933 c -5.817685,-0.437357 -8.955637,-4.962042 -1.79774,-7.150781 1.298398,-0.813154 2.623305,-1.587287 3.866576,-2.48532 z"
       inkscape:connector-curvature="0"
       id="path3235"
       style="fill:#010101;fill-opacity:1;fill-rule:evenodd;stroke:none" />
  </g>
  <g
     transform="matrix(0.5439097,0,0,0.5439097,11.814421,50.311576)"
     id="g2244"
     style="fill:#282828;fill-opacity:1">
    <path
       d="m 88.982804,21.695016 59.736506,0 9.03763,8.596768 0,60.177369 -68.774136,0 0,-68.774137 z"
       inkscape:connector-curvature="0"
       id="path5144"
       style="fill:#282828;fill-opacity:1;fill-rule:evenodd;stroke:none" />
    <rect
       width="4.4322443"
       height="3.9189899"
       x="91.684052"
       y="84.238586"
       id="rect5150"
       style="fill:#282828;fill-opacity:1;fill-rule:evenodd;stroke:none" />
  </g>
  <path
     d="m 57.628331,59.537737 32.491272,0 4.915652,4.675865 0,32.73106 -37.406924,0 0,-37.406925 z"
     inkscape:connector-curvature="0"
     id="rect5048"
     style="fill:url(#linearGradient2191);fill-opacity:1;fill-rule:evenodd;stroke:#000000;stroke-width:0.703538;stroke-linecap:round;stroke-linejoin:round;stroke-miterlimit:4;stroke-opacity:1;stroke-dashoffset:0" />
  <path
     d="m 67.942115,59.527623 0,13.905863 18.815973,0 0,-13.905863 -18.815973,0 z m 12.037095,2.546661 4.415432,0 0,8.995756 -4.415432,0 0,-8.995756 z"
     inkscape:connector-curvature="0"
     id="rect5051"
     style="fill:url(#linearGradient2188);fill-opacity:1;fill-rule:evenodd;stroke:#000000;stroke-width:0.703538;stroke-linecap:round;stroke-linejoin:round;stroke-miterlimit:4;stroke-opacity:1;stroke-dashoffset:0" />
  <rect
     width="26.620247"
     height="19.668463"
     x="63.077602"
     y="77.288857"
     id="rect5080"
     style="fill:#ffffff;fill-opacity:1;fill-rule:evenodd;stroke:#000000;stroke-width:0.703538;stroke-linecap:round;stroke-linejoin:round;stroke-miterlimit:4;stroke-opacity:1;stroke-dasharray:none;stroke-dashoffset:0" />
  <rect
     width="2.4107411"
     height="2.131577"
     x="59.097557"
     y="93.555786"
     id="rect5082"
     style="fill:#ffffff;fill-opacity:1;fill-rule:evenodd;stroke:#000000;stroke-width:0.34065637;stroke-linecap:round;stroke-linejoin:round;stroke-miterlimit:4;stroke-opacity:1;stroke-dasharray:none;stroke-dashoffset:0" />
  <path
     d="m 67.079813,80.115057 c 1.252865,1.010131 -1.917068,2.394033 -0.832277,0.614198 0.640154,-1.247175 -1.826289,-0.0016 -0.411436,-0.200877 -0.809464,1.81331 1.576685,2.292205 1.694899,0.399715 0.114662,-0.298074 0.109292,-1.229809 -0.451186,-0.813036 z m 0.584086,1.629457 c 1.040354,1.172362 1.006845,-2.24359 0.344418,-0.456963 0.483967,0.704272 0.33327,0.438196 -0.344418,0.456963 z m 2.378243,-0.195529 c -0.791402,0.588937 -0.420433,-1.839046 -0.988365,0.05709 -0.0785,0.83414 0.838881,0.417886 0.988365,-0.05709 z m -0.780586,-0.152086 c -0.149847,-0.8553 0.948407,-0.186918 0,0 z m 1.900308,-0.481597 c -0.435859,-0.530189 0.53438,-1.783649 -0.386185,-0.520662 -0.414369,0.728685 -0.947425,3.530857 -0.122481,1.42922 0.08376,-0.337009 0.192762,-0.712763 0.508666,-0.908558 z m 0.191869,0.04346 c -0.351993,1.404047 2.086906,1.146207 1.155106,-0.09654 -0.392019,1.686926 -0.683863,-0.666166 -1.155106,0.09654 l 0,0 z m 2.473224,0.619194 c -1.125014,-0.157577 0.581947,-2.804764 -0.596689,-0.888467 -0.146473,0.480637 -0.251345,2.052129 0.596689,0.888467 z m 1.815505,-0.662649 c -0.43587,-0.530189 0.534379,-1.783649 -0.386197,-0.520662 -0.414358,0.728685 -0.947414,3.530857 -0.12248,1.42922 0.08377,-0.337009 0.192762,-0.712763 0.508677,-0.908558 z m 0.770077,-0.65902 c 0.6097,-0.232391 -0.533574,-0.392702 0,0 z m 0.249361,1.36874 c -0.664237,-0.695099 -0.566907,-1.226589 -0.676354,0.222555 0.124023,0.359965 0.609369,-0.05112 0.676354,-0.222555 z m 0.849478,-0.04707 c -1.125015,-0.157577 0.581947,-2.804764 -0.596689,-0.888467 -0.146485,0.480637 -0.251345,2.052129 0.596689,0.888467 z m 1.127738,-0.02897 c -0.791403,0.588937 -0.420433,-1.839046 -0.988366,0.05709 -0.0785,0.83414 0.838882,0.417886 0.988366,-0.05709 z M 77.85853,81.396899 c -0.149847,-0.8553 0.948406,-0.186918 0,0 z m 0.790874,0.347615 c 1.040354,1.172362 1.006834,-2.24359 0.344406,-0.456963 0.483967,0.704261 0.333282,0.438196 -0.344406,0.456963 z"
     inkscape:connector-curvature="0"
     id="text5084"
     style="font-size:8.88496017px;font-style:normal;font-weight:normal;line-height:125%;fill:#000000;fill-opacity:1;stroke:none;font-family:Bitstream Vera Sans" />
  <path
     d="m 66.864612,86.079774 c -0.583203,0.519075 -1.373129,-0.16277 -0.887034,-0.807214 0.01866,-0.376207 0.577636,-0.991674 0.433368,-1.101298 -0.862975,0.06472 -1.127,1.165548 -0.925538,1.864495 0.280487,0.717625 1.00496,0.58005 1.379204,0.04402 z m 0.239646,0.260717 c -0.09005,-0.755854 0.99722,-0.59627 1.2064,-0.825672 -0.208133,-0.356139 -0.208827,-1.236656 -0.500936,-1.262822 -0.500926,0.554381 -0.518656,1.351341 -0.698341,2.042426 l -0.0054,0.03471 -0.0018,0.01136 z m 2.694566,-0.528667 c -0.56329,0.371156 -0.538337,-1.311117 -0.900507,-0.400741 -0.616559,0.609965 0.676387,1.32028 0.874706,0.484507 0.0086,-0.02792 0.0172,-0.05585 0.0258,-0.08377 z m -0.780585,-0.152086 c -0.373263,-0.476447 0.752998,-0.557061 0.293145,-0.09575 -0.09042,0.05125 -0.192685,0.07416 -0.293145,0.09575 z m 1.224527,0.586599 c -0.107385,-0.972862 1.047478,-0.544545 1.538204,-0.388379 0.450811,-0.617992 -0.548747,-1.400265 -1.15236,-0.962333 -0.537324,0.22368 -0.822861,0.893716 -0.385844,1.350712 z m 2.530021,-1.727216 c 0.564007,-0.200315 -0.443357,-0.285394 0,0 z m 0.249349,1.36874 c 0.04291,-0.463965 -0.806674,-0.967592 -0.699896,-0.210614 -0.09438,0.587857 0.476293,0.879338 0.699896,0.210614 z m 1.124132,-0.03983 c -0.584284,0.418239 -0.557975,-1.323257 -0.871773,-0.453303 -0.588772,0.563037 0.530123,1.399647 0.823776,0.592223 0.02582,-0.04232 0.03108,-0.09305 0.048,-0.13892 z m 1.622048,-0.01087 c 0.08416,-0.867892 -1.149548,-1.312396 -1.326741,-0.309795 -0.196842,0.989821 0.867208,0.758246 1.326741,0.309795 z m -0.704692,0.02173 c -0.825562,0.154302 0.03687,-1.037918 0.238489,-0.428218 -0.04095,0.161138 -0.145779,0.294215 -0.238489,0.428218 z m 1.552252,-0.01811 c -0.673068,-0.221905 -0.159761,-1.305913 -0.248015,-1.458462 -0.450458,0.431757 -0.559663,1.139062 -0.372348,1.713897 0.200238,0.291613 0.534975,-0.03736 0.620363,-0.255435 z m 1.862476,0.01086 c -0.427997,-0.05627 -0.350107,-1.456643 -0.685947,-0.659286 -0.327205,0.462124 0.132812,1.724615 0.685947,0.659286 z m 1.221815,-0.03983 c -0.563279,0.371156 -0.538338,-1.311117 -0.900508,-0.400741 -0.616558,0.609965 0.676387,1.32028 0.874707,0.484507 0.0086,-0.02792 0.0172,-0.05585 0.0258,-0.08377 z m -0.780586,-0.152086 c -0.373251,-0.476447 0.752998,-0.557061 0.293157,-0.09575 -0.09042,0.05125 -0.192696,0.07416 -0.293157,0.09575 z m 0.790863,0.347615 c 0.464858,0.765888 1.126437,-0.597979 0.631179,-0.843656 -0.447999,0.233647 -0.07529,0.701373 -0.0093,0.931459 -0.206137,0.06233 -0.420886,-0.0491 -0.621884,-0.0878 z m 2.316815,-0.155702 c -0.428008,-0.05627 -0.350118,-1.456643 -0.685958,-0.659286 -0.327205,0.462124 0.132812,1.724615 0.685958,0.659286 z m 0.0039,0.155702 c 0.464858,0.765888 1.126426,-0.597979 0.631179,-0.843656 -0.447999,0.233658 -0.07529,0.701384 -0.0093,0.931459 -0.206148,0.06233 -0.420885,-0.0491 -0.621884,-0.0878 z"
     inkscape:connector-curvature="0"
     id="text5092"
     style="font-size:8.88496017px;font-style:normal;font-weight:normal;line-height:125%;fill:#000000;fill-opacity:1;stroke:none;font-family:Bitstream Vera Sans" />
</svg>

<?xml version="1.0" encoding="UTF-8" standalone="no"?>
<!-- Created with Inkscape (http://www.inkscape.org/) -->
<svg
   xmlns:svg="http://www.w3.org/2000/svg"
   xmlns="http://www.w3.org/2000/svg"
   xmlns:xlink="http://www.w3.org/1999/xlink"
   version="1.0"
   width="100"
   height="100"
   id="svg2">
  <defs
     id="defs4">
    <linearGradient
       x1="15.350921"
       y1="46.012268"
       x2="80.354599"
       y2="46.012268"
       id="linearGradient2191"
       xlink:href="#linearGradient5072"
       gradientUnits="userSpaceOnUse"
       gradientTransform="matrix(0.5862815,0,0,0.5862815,48.276596,51.265049)" />
    <linearGradient
       x1="32.94278"
       y1="25.952555"
       x2="66.236534"
       y2="25.952555"
       id="linearGradient2188"
       xlink:href="#linearGradient5064"
       gradientUnits="userSpaceOnUse"
       gradientTransform="matrix(0.5862815,0,0,0.5862815,48.276596,51.265049)" />
    <linearGradient
       id="linearGradient5064">
      <stop
         id="stop5066"
         style="stop-color:#dadada;stop-opacity:1"
         offset="0" />
      <stop
         id="stop5068"
         style="stop-color:#898989;stop-opacity:1"
         offset="1" />
    </linearGradient>
    <linearGradient
       id="linearGradient5072">
      <stop
         id="stop5074"
         style="stop-color:#862bff;stop-opacity:1"
         offset="0" />
      <stop
         id="stop5076"
         style="stop-color:#9b50ff;stop-opacity:1"
         offset="1" />
    </linearGradient>
  </defs>
  <g
     transform="matrix(1.4729505,0,0,1.3857781,-14.783037,-10.951583)"
     id="g2222"
     style="fill:#282828;fill-opacity:1">
    <path
       d="M 18.48245,76.173836 C 28.750053,59.008499 37.561029,40.501038 52.045447,26.345519 C 56.907363,21.574658 66.500275,16.602181 68.476793,14.306386 C 69.395743,13.238993 69.953497,18.355761 66.72841,17.998056 C 62.380718,21.775209 59.22864,26.731119 54.727673,30.353225 C 43.582066,41.395155 36.018982,55.454188 30.113,69.844498 C 28.785513,73.202704 24.998844,73.81405 21.99056,74.848317 C 20.802165,75.236668 19.61882,75.649559 18.48245,76.173836 L 18.48245,76.173836 z"
       id="path2224"
       style="fill:#282828;fill-opacity:1;fill-rule:evenodd;stroke:none" />
    <path
       d="M 26.043592,14.383832 C 38.436485,16.889832 48.366606,25.59638 55.937949,35.265024 C 62.764473,42.904404 68.329753,52.307507 71.828855,61.737511 C 71.589676,72.866367 56.700653,71.981932 56.969096,60.998788 C 52.254723,44.377654 38.65891,32.065429 23.974756,24.019933 C 18.157071,23.582576 15.019119,19.057891 22.177016,16.869152 C 23.475414,16.055998 24.800321,15.281865 26.043592,14.383832 L 26.043592,14.383832 z"
       id="path2226"
       style="fill:#282828;fill-opacity:1;fill-rule:evenodd;stroke:none" />
  </g>
  <g
     transform="matrix(1.4729505,0,0,1.3857781,-18.154375,-13.676637)"
     id="g2218">
    <path
       d="M 18.48245,76.173836 C 28.750053,59.008499 37.561029,40.501038 52.045447,26.345519 C 56.907363,21.574658 66.500275,16.602181 68.476793,14.306386 C 69.395743,13.238993 69.953497,18.355761 66.72841,17.998056 C 62.380718,21.775209 59.22864,26.731119 54.727673,30.353225 C 43.582066,41.395155 36.018982,55.454188 30.113,69.844498 C 28.785513,73.202704 24.998844,73.81405 21.99056,74.848317 C 20.802165,75.236668 19.61882,75.649559 18.48245,76.173836 L 18.48245,76.173836 z"
       id="path3233"
       style="fill:#010101;fill-opacity:1;fill-rule:evenodd;stroke:none" />
    <path
       d="M 26.043592,14.383832 C 38.436485,16.889832 48.366606,25.59638 55.937949,35.265024 C 62.764473,42.904404 68.329753,52.307507 71.828855,61.737511 C 71.589676,72.866367 56.700653,71.981932 56.969096,60.998788 C 52.254723,44.377654 38.65891,32.065429 23.974756,24.019933 C 18.157071,23.582576 15.019119,19.057891 22.177016,16.869152 C 23.475414,16.055998 24.800321,15.281865 26.043592,14.383832 L 26.043592,14.383832 z"
       id="path3235"
       style="fill:#010101;fill-opacity:1;fill-rule:evenodd;stroke:none" />
  </g>
  <g
     transform="matrix(0.5439097,0,0,0.5439097,11.814421,50.311576)"
     id="g2244"
     style="fill:#282828;fill-opacity:1">
    <path
       d="M 88.982804,21.695016 L 148.71931,21.695016 L 157.75694,30.291784 L 157.75694,90.469153 L 88.982804,90.469153 L 88.982804,21.695016 L 88.982804,21.695016 z"
       id="path5144"
       style="fill:#282828;fill-opacity:1;fill-rule:evenodd;stroke:none" />
    <rect
       width="4.4322443"
       height="3.9189899"
       x="91.684052"
       y="84.238586"
       id="rect5150"
       style="fill:#282828;fill-opacity:1;fill-rule:evenodd;stroke:none" />
  </g>
  <path
     d="M 57.628331,59.537737 L 90.119603,59.537737 L 95.035255,64.213602 L 95.035255,96.944662 L 57.628331,96.944662 L 57.628331,59.537737 L 57.628331,59.537737 z"
     id="rect5048"
     style="fill:url(#linearGradient2191);fill-opacity:1;fill-rule:evenodd;stroke:#000000;stroke-width:0.703538;stroke-linecap:round;stroke-linejoin:round;stroke-miterlimit:4;stroke-dashoffset:0;stroke-opacity:1" />
  <path
     d="M 67.942115,59.527623 L 67.942115,73.433486 L 86.758088,73.433486 L 86.758088,59.527623 L 67.942115,59.527623 L 67.942115,59.527623 z M 79.97921,62.074284 L 84.394642,62.074284 L 84.394642,71.07004 L 79.97921,71.07004 L 79.97921,62.074284 L 79.97921,62.074284 z"
     id="rect5051"
     style="fill:url(#linearGradient2188);fill-opacity:1;fill-rule:evenodd;stroke:#000000;stroke-width:0.703538;stroke-linecap:round;stroke-linejoin:round;stroke-miterlimit:4;stroke-dashoffset:0;stroke-opacity:1" />
  <rect
     width="26.620247"
     height="19.668463"
     x="63.077602"
     y="77.288857"
     id="rect5080"
     style="fill:#ffffff;fill-opacity:1;fill-rule:evenodd;stroke:#000000;stroke-width:0.703538;stroke-linecap:round;stroke-linejoin:round;stroke-miterlimit:4;stroke-dasharray:none;stroke-dashoffset:0;stroke-opacity:1" />
  <rect
     width="2.4107411"
     height="2.131577"
     x="59.097557"
     y="93.555786"
     id="rect5082"
     style="fill:#ffffff;fill-opacity:1;fill-rule:evenodd;stroke:#000000;stroke-width:0.34065637;stroke-linecap:round;stroke-linejoin:round;stroke-miterlimit:4;stroke-dasharray:none;stroke-dashoffset:0;stroke-opacity:1" />
  <path
     d="M 67.079813,80.115057 C 68.332678,81.125188 65.162745,82.50909 66.247536,80.729255 C 66.88769,79.48208 64.421247,80.727655 65.8361,80.528378 C 65.026636,82.341688 67.412785,82.820583 67.530999,80.928093 C 67.645661,80.630019 67.640291,79.698284 67.079813,80.115057 z M 67.663899,81.744514 C 68.704253,82.916876 68.670744,79.500924 68.008317,81.287551 C 68.492284,81.991823 68.341587,81.725747 67.663899,81.744514 z M 70.042142,81.548985 C 69.25074,82.137922 69.621709,79.709939 69.053777,81.606075 C 68.975277,82.440215 69.892658,82.023961 70.042142,81.548985 z M 69.261556,81.396899 C 69.111709,80.541599 70.209963,81.209981 69.261556,81.396899 z M 71.161864,80.915302 C 70.726005,80.385113 71.696244,79.131653 70.775679,80.39464 C 70.36131,81.123325 69.828254,83.925497 70.653198,81.82386 C 70.736958,81.486851 70.84596,81.111097 71.161864,80.915302 L 71.161864,80.915302 z M 71.353733,80.958762 C 71.00174,82.362809 73.440639,82.104969 72.508839,80.862222 C 72.11682,82.549148 71.824976,80.196056 71.353733,80.958762 L 71.353733,80.958762 z M 73.826957,81.577956 C 72.701943,81.420379 74.408904,78.773192 73.230268,80.689489 C 73.083795,81.170126 72.978923,82.741618 73.826957,81.577956 z M 75.642462,80.915307 C 75.206592,80.385118 76.176841,79.131658 75.256265,80.394645 C 74.841907,81.12333 74.308851,83.925502 75.133785,81.823865 C 75.217555,81.486856 75.326547,81.111102 75.642462,80.915307 L 75.642462,80.915307 z M 76.412539,80.256287 C 77.022239,80.023896 75.878965,79.863585 76.412539,80.256287 z M 76.6619,81.625027 C 75.997663,80.929928 76.094993,80.398438 75.985546,81.847582 C 76.109569,82.207547 76.594915,81.796462 76.6619,81.625027 z M 77.511378,81.577957 C 76.386363,81.42038 78.093325,78.773193 76.914689,80.68949 C 76.768204,81.170127 76.663344,82.741619 77.511378,81.577957 z M 78.639116,81.548987 C 77.847713,82.137924 78.218683,79.709941 77.65075,81.606077 C 77.57225,82.440217 78.489632,82.023963 78.639116,81.548987 z M 77.85853,81.396899 C 77.708683,80.541599 78.806936,81.209981 77.85853,81.396899 z M 78.649404,81.744514 C 79.689758,82.916876 79.656238,79.500924 78.99381,81.287551 C 79.477777,81.991812 79.327092,81.725747 78.649404,81.744514 z"
     id="text5084"
     style="font-size:8.88496017px;font-style:normal;font-weight:normal;line-height:125%;fill:#000000;fill-opacity:1;stroke:none;font-family:Bitstream Vera Sans" />
  <path
     d="M 66.864612,86.079774 C 66.281409,86.598849 65.491483,85.917004 65.977578,85.27256 C 65.996238,84.896353 66.555214,84.280886 66.410946,84.171262 C 65.547971,84.235982 65.283946,85.33681 65.485408,86.035757 C 65.765895,86.753382 66.490368,86.615807 66.864612,86.079777 L 66.864612,86.079774 z M 67.104258,86.340491 C 67.014208,85.584637 68.101478,85.744221 68.310658,85.514819 C 68.102525,85.15868 68.101831,84.278163 67.809722,84.251997 C 67.308796,84.806378 67.291066,85.603338 67.111381,86.294423 L 67.105981,86.329133 L 67.104181,86.340493 L 67.104258,86.340491 z M 69.798824,85.811824 C 69.235534,86.18298 69.260487,84.500707 68.898317,85.411083 C 68.281758,86.021048 69.574704,86.731363 69.773023,85.89559 C 69.781623,85.86767 69.790223,85.83974 69.798823,85.81182 L 69.798824,85.811824 z M 69.018239,85.659738 C 68.644976,85.183291 69.771237,85.102677 69.311384,85.563988 C 69.220964,85.615238 69.118699,85.638148 69.018239,85.659738 z M 70.242766,86.246337 C 70.135381,85.273475 71.290244,85.701792 71.78097,85.857958 C 72.231781,85.239966 71.232223,84.457693 70.62861,84.895625 C 70.091286,85.119305 69.805749,85.789341 70.242766,86.246337 L 70.242766,86.246337 z M 72.772787,84.519121 C 73.336794,84.318806 72.32943,84.233727 72.772787,84.519121 z M 73.022136,85.887861 C 73.065046,85.423896 72.215462,84.920269 72.32224,85.677247 C 72.22786,86.265104 72.798533,86.556585 73.022136,85.887861 z M 74.146268,85.848031 C 73.561984,86.26627 73.588293,84.524774 73.274495,85.394728 C 72.685723,85.957765 73.804618,86.794375 74.098271,85.986951 C 74.124091,85.944631 74.129351,85.893901 74.146271,85.848031 L 74.146268,85.848031 z M 75.768316,85.837161 C 75.852476,84.969269 74.618768,84.524765 74.441575,85.527366 C 74.244733,86.517187 75.308783,86.285612 75.768316,85.837161 z M 75.063624,85.858891 C 74.238062,86.013193 75.100494,84.820973 75.302113,85.430673 C 75.261163,85.591811 75.156334,85.724888 75.063624,85.858891 z M 76.615876,85.840781 C 75.942808,85.618876 76.456115,84.534868 76.367861,84.382319 C 75.917403,84.814076 75.808198,85.521381 75.995513,86.096216 C 76.195751,86.387829 76.530488,86.058856 76.615876,85.840781 z M 78.478352,85.851641 C 78.050355,85.795371 78.128245,84.394998 77.792405,85.192355 C 77.4652,85.654479 77.925217,86.91697 78.478352,85.851641 z M 79.700167,85.811811 C 79.136888,86.182967 79.161829,84.500694 78.799659,85.41107 C 78.183101,86.021035 79.476046,86.73135 79.674366,85.895577 C 79.682966,85.867657 79.691566,85.839727 79.700166,85.811807 L 79.700167,85.811811 z M 78.919581,85.659725 C 78.54633,85.183278 79.672579,85.102664 79.212738,85.563975 C 79.122318,85.615225 79.020042,85.638135 78.919581,85.659725 z M 79.710444,86.00734 C 80.175302,86.773228 80.836881,85.409361 80.341623,85.163684 C 79.893624,85.397331 80.266333,85.865057 80.332323,86.095143 C 80.126186,86.157473 79.911437,86.046043 79.710439,86.007343 L 79.710444,86.00734 z M 82.027259,85.851638 C 81.599251,85.795368 81.677141,84.394995 81.341301,85.192352 C 81.014096,85.654476 81.474113,86.916967 82.027259,85.851638 z M 82.031159,86.00734 C 82.496017,86.773228 83.157585,85.409361 82.662338,85.163684 C 82.214339,85.397342 82.587048,85.865068 82.653038,86.095143 C 82.44689,86.157473 82.232153,86.046043 82.031154,86.007343 L 82.031159,86.00734 z"
     id="text5092"
     style="font-size:8.88496017px;font-style:normal;font-weight:normal;line-height:125%;fill:#000000;fill-opacity:1;stroke:none;font-family:Bitstream Vera Sans" />
</svg>
